icons/bhi_day.svg

<svg xmlns="http://www.w3.org/2000/svg" viewBox="0 0 512 512" enable-background="new 0 0 512 512"><path fill="#010101" d="M256 512c-9.2 0-16.1-6.9-16.1-16.1v-39c0-9.2 6.9-16.1 16.1-16.1s16.1 6.9 16.1 16.1v39c-.1 9.2-6.9 16.1-16.1 16.1zm-170-71.2c-4.6 0-9.2-2.3-11.5-4.6-2.3-2.3-4.6-6.9-4.6-11.5s2.3-9.2 4.6-11.5l27.6-27.6c2.3-2.3 6.9-4.6 11.5-4.6s9.2 2.3 11.5 4.6c6.9 6.9 6.9 16.1 0 23l-27.6 27.6c-2.3 2.3-6.9 4.6-11.5 4.6zm339.9 0c-4.6 0-9.2-2.3-11.5-4.6l-27.6-27.6c-2.3-2.3-4.6-6.9-4.6-11.5s2.3-9.2 4.6-11.5c2.3-2.3 6.9-4.6 11.5-4.6s9.2 2.3 11.5 4.6l27.6 27.6c6.9 6.9 6.9 16.1 0 23-4.6 2.3-6.9 4.6-11.5 4.6zm-169.9-48.2c-75.8 0-135.5-59.7-135.5-135.5s59.7-135.6 135.5-135.6 135.5 59.7 135.5 135.5-59.7 135.6-135.5 135.6zm0-241.2c-57.4 0-103.4 45.9-103.4 103.4s45.9 103.3 103.4 103.3 103.4-45.9 103.4-103.4c-.1-55.1-46-103.3-103.4-103.3zm199.8 119.4c-9.2 0-16.1-6.9-16.1-16.1 0-9.2 6.9-16.1 16.1-16.1h39c9.2 0 16.1 6.9 16.1 16.1 0 9.2-6.9 16.1-16.1 16.1h-39zm-438.7 0c-9.2 0-16.1-6.9-16.1-16.1 0-9.2 6.9-16.1 16.1-16.1h39c9.2 0 16.1 6.9 16.1 16.1 0 9.2-6.9 16.1-16.1 16.1h-39zm379-140.1c-4.6 0-9.2-2.3-11.5-4.6-6.9-6.9-6.9-16.1 0-23l27.6-27.6c4.6-2.3 9.2-4.6 13.8-4.6 4.6 0 9.2 2.3 11.5 4.6 2.3 2.3 4.6 6.9 4.6 11.5s-2.3 9.2-4.6 11.5l-27.6 27.6c-4.6 2.3-9.2 4.6-13.8 4.6zm-280.2 0c-4.6 0-9.2-2.3-11.5-4.6l-29.9-27.6c-2.3-4.6-4.6-6.9-4.6-11.5s2.3-9.2 4.6-11.5c4.6-2.2 6.9-4.5 11.5-4.5s9.2 2.3 11.5 4.6l27.6 27.6c6.9 6.9 6.9 16.1 0 23-2.4 2.2-7 4.5-9.2 4.5zm140.1-57.4c-9.2 0-16.1-6.9-16.1-16.1v-41.4c0-9.2 6.9-16.1 16.1-16.1s16 7 16 16.1v39c0 11.6-6.8 18.5-16 18.5z"/></svg>

<?xml version="1.0" encoding="utf-8"?>
<!-- Generator: Adobe Illustrator 19.2.0, SVG Export Plug-In . SVG Version: 6.00 Build 0)  -->
<svg version="1.1" id="Layer_1" xmlns="http://www.w3.org/2000/svg" xmlns:xlink="http://www.w3.org/1999/xlink" x="0px" y="0px"
	 viewBox="0 0 512 512" enable-background="new 0 0 512 512" xml:space="preserve">
<g>
	<path fill="#010101" d="M256,512c-9.2,0-16.1-6.9-16.1-16.1v-39c0-9.2,6.9-16.1,16.1-16.1s16.1,6.9,16.1,16.1v39
		C272,505.1,265.2,512,256,512z M86,440.8c-4.6,0-9.2-2.3-11.5-4.6c-2.3-2.3-4.6-6.9-4.6-11.5c0-4.6,2.3-9.2,4.6-11.5l27.6-27.6
		c2.3-2.3,6.9-4.6,11.5-4.6s9.2,2.3,11.5,4.6c6.9,6.9,6.9,16.1,0,23l-27.6,27.6C95.2,438.5,90.6,440.8,86,440.8z M425.9,440.8
		c-4.6,0-9.2-2.3-11.5-4.6l-27.6-27.6c-2.3-2.3-4.6-6.9-4.6-11.5c0-4.6,2.3-9.2,4.6-11.5c2.3-2.3,6.9-4.6,11.5-4.6s9.2,2.3,11.5,4.6
		l27.6,27.6c6.9,6.9,6.9,16.1,0,23C432.8,438.5,430.5,440.8,425.9,440.8z M256,392.6c-75.8,0-135.5-59.7-135.5-135.5
		S180.2,121.5,256,121.5S391.5,181.2,391.5,257S331.8,392.6,256,392.6z M256,151.4c-57.4,0-103.4,45.9-103.4,103.4
		S198.5,358.1,256,358.1s103.4-45.9,103.4-103.4C359.3,199.6,313.4,151.4,256,151.4z M455.8,270.8c-9.2,0-16.1-6.9-16.1-16.1
		c0-9.2,6.9-16.1,16.1-16.1h39c9.2,0,16.1,6.9,16.1,16.1c0,9.2-6.9,16.1-16.1,16.1H455.8z M17.1,270.8c-9.2,0-16.1-6.9-16.1-16.1
		c0-9.2,6.9-16.1,16.1-16.1h39c9.2,0,16.1,6.9,16.1,16.1c0,9.2-6.9,16.1-16.1,16.1H17.1z M396.1,130.7c-4.6,0-9.2-2.3-11.5-4.6
		c-6.9-6.9-6.9-16.1,0-23l27.6-27.6c4.6-2.3,9.2-4.6,13.8-4.6c4.6,0,9.2,2.3,11.5,4.6c2.3,2.3,4.6,6.9,4.6,11.5s-2.3,9.2-4.6,11.5
		l-27.6,27.6C405.3,128.4,400.7,130.7,396.1,130.7z M115.9,130.7c-4.6,0-9.2-2.3-11.5-4.6L74.5,98.5c-2.3-4.6-4.6-6.9-4.6-11.5
		c0-4.6,2.3-9.2,4.6-11.5C79.1,73.3,81.4,71,86,71c4.6,0,9.2,2.3,11.5,4.6l27.6,27.6c6.9,6.9,6.9,16.1,0,23
		C122.7,128.4,118.1,130.7,115.9,130.7z M256,73.3c-9.2,0-16.1-6.9-16.1-16.1V15.8c0-9.2,6.9-16.1,16.1-16.1S272,6.7,272,15.8v39
		C272,66.4,265.2,73.3,256,73.3z"/>
</g>
</svg>
